X:891
T:House Of Hamill, The
R:reel
C:Ed Reavy
Z:id:hn-reel-891
M:C|
L:1/8
K:Edor
EBBA BFAF | EBBc dAFD | EBBA (3Bcd ef |1 gfec dAFD :|2 gfec dAFA ||
|: BE~E2 dE~E2 | BE~E2 ADFA |1 BE~E2 Bdef | gfec dAFA :|2 BAGF GBef | gfec dAFA ||
|: B2^GB eB^GB | BA^GB ADFA |1 B2^GB edef | =gfec dAFA :|2 BA=GF GBef | gfec dAFD ||

